src/Pure/16/symbolic/apps/org.gnome.Settings-device-security-symbolic.svg

<?xml version="1.0" encoding="UTF-8" standalone="no"?>
<svg
   width="16px"
   height="16px"
   version="1.1"
   viewBox="0 0 16 16"
   id="svg2"
   sodipodi:docname="org.gnome.Settings-device-security-symbolic.svg"
   inkscape:version="1.4.2 (ebf0e940d0, 2025-05-08)"
   xmlns:inkscape="http://www.inkscape.org/namespaces/inkscape"
   xmlns:sodipodi="http://sodipodi.sourceforge.net/DTD/sodipodi-0.dtd"
   xmlns="http://www.w3.org/2000/svg"
   xmlns:svg="http://www.w3.org/2000/svg">
  <defs
     id="defs2">
     <style
        id="current-color-scheme"
        type="text/css">
        .ColorScheme-Text { color:#363636; }
     </style>
  </defs>
  <sodipodi:namedview
     id="namedview2"
     pagecolor="#ffffff"
     bordercolor="#000000"
     borderopacity="0.25"
     inkscape:showpageshadow="2"
     inkscape:pageopacity="0.0"
     inkscape:pagecheckerboard="0"
     inkscape:deskcolor="#d1d1d1"
     inkscape:zoom="49.6875"
     inkscape:cx="8"
     inkscape:cy="8"
     inkscape:window-width="1920"
     inkscape:window-height="1010"
     inkscape:window-x="0"
     inkscape:window-y="0"
     inkscape:window-maximized="1"
     inkscape:current-layer="svg2" />
  <path
     id="path1"
     style="fill:currentColor"
     class="ColorScheme-Text"
     d="M 3.5 0 C 2.1328 0 1 1.1328 1 2.5 L 1 8.5 C 1 10.3945 1.9492575 12.16795 3.5234375 13.21875 L 7.4453125 15.832031 C 7.7812525 16.054691 8.2187275 16.054691 8.5546875 15.832031 L 12.476562 13.21875 C 14.050762 12.16795 15 10.3946 15 8.5 L 15 2.5 C 15 1.1328 13.8672 0 12.5 0 L 3.5 0 z M 3.5 1 L 12.5 1 C 13.3148 1 14 1.68519 14 2.5 L 14 8.5 C 14 10.0605 13.218325 11.521319 11.921875 12.386719 L 8.0019531 14.998047 L 8 14.998047 L 7.9980469 14.998047 L 4.078125 12.386719 C 2.781625 11.521329 2 10.0605 2 8.5 L 2 2.5 C 2 1.68519 2.68519 1 3.5 1 z M 8 4 A 2 2 0 0 0 6 6 A 2 2 0 0 0 7 7.7265625 L 7 10 C 7 10.554 7.446 11 8 11 C 8.554 11 9 10.554 9 10 L 9 7.7265625 A 2 2 0 0 0 10 6 A 2 2 0 0 0 8 4 z M 8 5 A 1 1 0 0 1 9 6 A 1 1 0 0 1 8 7 A 1 1 0 0 1 7 6 A 1 1 0 0 1 8 5 z " />
</svg>

<svg width="16px" height="16px" version="1.1" viewBox="0 0 16 16" xmlns="http://www.w3.org/2000/svg">
 <path d="m3.5 0c-1.3672 0-2.5 1.1328-2.5 2.5v6c0 1.8945 0.94922 3.668 2.5234 4.7188l3.9219 2.6133c0.33594 0.22266 0.77344 0.22266 1.1094 0l3.9219-2.6133c1.5742-1.0508 2.5234-2.8242 2.5234-4.7188v-6c0-1.3672-1.1328-2.5-2.5-2.5zm0 1h9c0.8148 0 1.5 0.68519 1.5 1.5v6c0 1.5605-0.78165 3.0213-2.0781 3.8867l-3.9199 2.6113c-0.00268 0.0018-0.00123 0.0018-0.00391 0l-3.9199-2.6113c-1.2965-0.86539-2.0781-2.3262-2.0781-3.8867v-6c0-0.81481 0.68519-1.5 1.5-1.5z" fill="#363636"/>
 <path d="m8 4a2 2 0 0 0-2 2 2 2 0 0 0 1 1.7266v2.2734c0 0.554 0.446 1 1 1s1-0.446 1-1v-2.2734a2 2 0 0 0 1-1.7266 2 2 0 0 0-2-2zm0 1a1 1 0 0 1 1 1 1 1 0 0 1-1 1 1 1 0 0 1-1-1 1 1 0 0 1 1-1z" fill="#363636" stroke-linecap="round" stroke-linejoin="round" stroke-width="2"/>
</svg>
